X: 21311
T: Kenmare Golf Disaster, The
R: polka
M: 2/4
K: Dmajor
|:FB AF|DB, B,C/B,/|A,D DE|FE ED/E/|
FB AF|DB, B,C/B,/|A,D DE|FD D2:|
EF/E/ DE|FA Bc|dB AF|BE ED|
EF/E/ DE|FA Bc|dB AF|FD D2|
EF/E/ DE|FA Bc|dB AF|BE ED/E/|
FB AF|DB, B,C/B,/|A,D DE|FD D2||

